X: 36890
T: Shoe The Donkey
R: mazurka
M: 3/4
K: Gmajor
dc|:d2 B2 dc|d2 B2 dc|d2 e2 d2|c4 cB|
c2 A2 cB|c2 A2 cB|c2 e2 d2|1 B4 dc:|2 G4 BA||
|:G2 B2 d2|g3 g ag|f2 e2 d2|A3B AG|
F2 G2 A2|f3 g fe|1 d2 c2 A2|B3 c BA:|2 d2 e2 f2|g6||

